public/img/quarter-icon-3.svg

<svg width="55" height="55" viewBox="0 0 55 55" fill="none" xmlns="http://www.w3.org/2000/svg">
<g clip-path="url(#clip0)">
<path d="M53.361 46.669L53.3315 46.6437L53.3652 46.6099L52.6092 45.9721L47.3508 41.0896C47.3508 41.0896 47.2579 41.1868 47.1101 41.3304L46.9707 41.4782C45.7754 42.6017 41.9277 45.8412 37.4169 45.9003C37.3198 45.9003 37.2226 45.9003 37.1255 45.9003C34.7518 45.6427 32.4373 44.3671 30.089 42.0104C26.1906 38.0909 21.8614 35.9664 17.1943 35.675C17.0634 35.675 16.9366 35.675 16.8057 35.675C16.1036 35.6126 15.3983 35.5943 14.6939 35.6201C7.67006 35.9073 2.44546 40.6166 0.675766 42.4327C0.304089 42.7833 0.076028 43.024 0.0295683 43.0747L0.0591367 43.1001L0 43.1085L0.756016 43.7463L6.01018 48.6288L6.25516 48.388L6.39454 48.2402C7.59405 47.1167 11.4375 43.8772 15.9483 43.8181C16.0455 43.8181 16.1426 43.8181 16.2398 43.8181C18.6134 44.0757 20.928 45.3512 23.2763 47.708C27.1747 51.6275 31.5039 53.752 36.171 54.0434C36.2977 54.0434 36.4328 54.0434 36.5595 54.0434C37.2615 54.1077 37.9669 54.1261 38.6713 54.0983C45.6952 53.8111 50.9198 49.1018 52.6895 47.2857C53.0611 46.9351 53.2892 46.6944 53.3357 46.6437" fill="#FFD100"/>
<path d="M35.3945 5.88643L35.5438 5.81896C35.6142 5.78898 35.6783 5.74452 35.7323 5.68817C35.7862 5.63182 35.829 5.56471 35.8581 5.49075C35.8872 5.41679 35.9021 5.33746 35.9018 5.25739C35.9016 5.17731 35.8862 5.09809 35.8566 5.02433C35.7983 4.875 35.6863 4.75607 35.5451 4.69356C35.4039 4.63105 35.2449 4.63004 35.103 4.69074L34.9502 4.75821C34.8204 4.82828 34.7204 4.94737 34.6702 5.09173C34.62 5.2361 34.6233 5.39511 34.6793 5.53704C34.7354 5.67897 34.8402 5.79339 34.9728 5.85745C35.1053 5.92152 35.2559 5.93053 35.3945 5.88268" fill="#FFD100"/>
<path d="M38.8064 1.20422L38.9719 1.15163C39.0996 1.07996 39.1974 0.961437 39.2463 0.818933C39.2953 0.67643 39.2919 0.520051 39.2369 0.37998C39.1819 0.23991 39.0791 0.126078 38.9485 0.060457C38.8178 -0.00516424 38.6685 -0.0179229 38.5293 0.0246436L38.3782 0.0885063C38.3068 0.118998 38.2418 0.163904 38.187 0.220652C38.1323 0.277399 38.0888 0.344871 38.059 0.419203C38.0293 0.493535 38.0139 0.573265 38.0137 0.653824C38.0135 0.734384 38.0285 0.814189 38.0579 0.888668C38.0867 0.963086 38.1294 1.03078 38.1835 1.0878C38.2376 1.14483 38.302 1.19004 38.373 1.22081C38.444 1.25158 38.5202 1.26728 38.5971 1.26702C38.6739 1.26675 38.75 1.25051 38.8208 1.21925" fill="#FFD100"/>
<path d="M41.9597 1.64449L42.15 1.57916C42.2458 1.55486 42.3344 1.51443 42.4101 1.46045C42.4858 1.40647 42.547 1.34013 42.5897 1.26567C42.6323 1.19121 42.6556 1.11026 42.658 1.028C42.6604 0.945738 42.6418 0.863975 42.6035 0.787932C42.5652 0.711888 42.508 0.643237 42.4355 0.586366C42.363 0.529494 42.2768 0.485651 42.1825 0.45764C42.0882 0.429628 41.9878 0.418063 41.8877 0.423684C41.7876 0.429305 41.6901 0.451988 41.6013 0.490284L41.4155 0.555616C41.2392 0.615143 41.0988 0.729502 41.025 0.873693C40.9512 1.01788 40.95 1.18018 41.0216 1.32509C41.0961 1.46845 41.2356 1.58238 41.4108 1.6427C41.5859 1.70301 41.7828 1.70496 41.9597 1.64812" fill="#FFD100"/>
<path d="M39.3213 3.85084C39.3489 3.92415 39.3899 3.99084 39.4419 4.04701C39.4939 4.10319 39.5558 4.14773 39.624 4.17804C39.6922 4.20835 39.7653 4.22382 39.8392 4.22356C39.913 4.2233 39.9861 4.2073 40.0541 4.17651L40.1993 4.11359C40.2675 4.08358 40.3295 4.03946 40.3817 3.98375C40.4339 3.92804 40.4753 3.86184 40.5036 3.78895C40.5319 3.71605 40.5464 3.63791 40.5464 3.55898C40.5464 3.48006 40.5318 3.40192 40.5035 3.32904C40.4762 3.25586 40.4355 3.18925 40.3839 3.13311C40.3323 3.07698 40.2707 3.03244 40.2027 3.00211C40.1348 2.97178 40.0619 2.95627 39.9883 2.95648C39.9147 2.9567 39.8419 2.97265 39.7741 3.00338L39.6255 3.06259C39.4881 3.12474 39.3792 3.24233 39.3223 3.38987C39.2653 3.53741 39.265 3.70303 39.3213 3.85084Z" fill="#FFD100"/>
<path d="M42.2776 3.84962C42.3343 3.9972 42.4433 4.11472 42.5806 4.1765C42.7179 4.23827 42.8724 4.23927 43.0105 4.17928L43.1556 4.11261C43.2237 4.08269 43.2856 4.0387 43.3379 3.98314C43.3901 3.92758 43.4316 3.86154 43.46 3.78879C43.4884 3.71604 43.5031 3.63801 43.5034 3.55915C43.5037 3.48029 43.4894 3.40215 43.4615 3.32918C43.4336 3.25622 43.3926 3.18986 43.3407 3.1339C43.2889 3.07794 43.2272 3.03346 43.1594 3.00302C43.0915 2.97258 43.0186 2.95677 42.945 2.95649C42.8715 2.9562 42.7986 2.97145 42.7305 3.00137L42.5853 3.06434C42.4476 3.12509 42.3379 3.2418 42.2803 3.38895C42.2226 3.5361 42.2217 3.70173 42.2776 3.84962Z" fill="#FFD100"/>
<path d="M37.211 5.95408C37.2701 6.10454 37.3836 6.22435 37.5267 6.28733C37.6698 6.35031 37.8308 6.35134 37.9746 6.29018L38.1259 6.22598C38.2538 6.15393 38.3516 6.03478 38.4006 5.89153C38.4496 5.74828 38.4462 5.59108 38.3912 5.45027C38.3361 5.30947 38.2333 5.19504 38.1025 5.12907C37.9716 5.06311 37.8222 5.05028 37.6829 5.09307L37.5316 5.15727C37.3881 5.2192 37.2738 5.33819 37.2137 5.48821C37.1537 5.63823 37.1527 5.80708 37.211 5.95786" fill="#FFD100"/>
<path d="M40.1843 6.37981C40.223 6.45405 40.28 6.52152 40.3519 6.57837C40.4239 6.63522 40.5094 6.68033 40.6035 6.7111C40.6976 6.74187 40.7985 6.7577 40.9004 6.75768C41.0023 6.75767 41.1032 6.7418 41.1973 6.711L41.398 6.64702C41.5699 6.57585 41.7018 6.45669 41.7679 6.3129C41.834 6.1691 41.8295 6.01105 41.7554 5.86972C41.6812 5.72839 41.5427 5.61398 41.367 5.54891C41.1912 5.48384 40.991 5.4728 40.8055 5.51796L40.6048 5.58571C40.5105 5.61622 40.4249 5.6611 40.3527 5.71775C40.2805 5.77441 40.2232 5.84174 40.1841 5.91586C40.1451 5.98999 40.125 6.06947 40.125 6.14973C40.125 6.22999 40.1452 6.30946 40.1843 6.38357" fill="#FFD100"/>
<path d="M37.1151 3.77037L37.2709 3.70181C37.4026 3.62915 37.5034 3.50898 37.5539 3.36449C37.6043 3.22001 37.6009 3.06146 37.5442 2.91944C37.4874 2.77742 37.3815 2.66201 37.2468 2.59548C37.112 2.52894 36.9581 2.51601 36.8146 2.55917L36.6514 2.62773C36.5159 2.69892 36.4116 2.81994 36.3592 2.96664C36.3068 3.11334 36.3102 3.27492 36.3688 3.41915C36.4273 3.56337 36.5367 3.67964 36.675 3.74474C36.8133 3.80984 36.9705 3.819 37.1151 3.77037Z" fill="#FFD100"/>
<path d="M37.1689 11.8572C36.5781 10.7888 35.6192 9.97582 34.4738 9.57208C33.3283 9.16833 32.0757 9.20188 30.9532 9.66637C29.8306 10.1309 28.9159 10.9941 28.3823 12.0926C27.8486 13.1911 27.7331 14.4487 28.0574 15.6273L37.1689 11.8572Z" fill="#FFD100"/>
<path d="M38.8852 12.6708L34.6366 14.4237L35.3026 16.0493C35.4858 16.5008 35.4838 17.0071 35.2969 17.4572C35.11 17.9072 34.7535 18.2643 34.3055 18.4502C34.111 18.533 33.9029 18.5787 33.6917 18.585L34.1716 19.7648C34.2705 19.9895 34.3238 20.2319 34.3281 20.4776C34.3324 20.7233 34.2878 20.9675 34.1968 21.1955C34.1058 21.4236 33.9704 21.631 33.7985 21.8055C33.6265 21.9799 33.4216 22.118 33.1958 22.2113C32.97 22.3047 32.7279 22.3516 32.4838 22.3492C32.2397 22.3468 31.9986 22.2951 31.7746 22.1973C31.5507 22.0995 31.3485 21.9575 31.18 21.7796C31.0115 21.6018 30.8801 21.3917 30.7936 21.1619L28.993 16.7534L27.877 17.2141L36.2959 37.8558C36.3207 37.9173 36.3686 37.9664 36.4293 37.9924C36.4899 38.0184 36.5584 38.0191 36.6195 37.9944L47.1553 33.6421C47.2144 33.6149 47.2612 33.5662 47.286 33.5057C47.3109 33.4452 47.312 33.3775 47.2892 33.3162L38.8852 12.6708Z" fill="#FFD100"/>
<path d="M32.1813 16.5889C32.2567 16.5577 32.3374 16.5418 32.419 16.542C32.5005 16.5423 32.5811 16.5587 32.6563 16.5904C32.7315 16.622 32.7996 16.6683 32.8569 16.7265C32.9141 16.7847 32.9594 16.8537 32.9899 16.9296C33.0215 17.007 33.0679 17.0774 33.1266 17.1368C33.1853 17.1961 33.255 17.2434 33.3319 17.2757C33.4087 17.308 33.4912 17.3249 33.5745 17.3252C33.6578 17.3256 33.7404 17.3095 33.8176 17.2778C33.8947 17.2462 33.9649 17.1996 34.0241 17.1407C34.0833 17.0818 34.1303 17.0118 34.1625 16.9347C34.1948 16.8576 34.2115 16.7749 34.2119 16.6912C34.2122 16.6076 34.1962 16.5247 34.1646 16.4473L33.4743 14.7825L29.9883 16.2215L31.8266 20.7223C31.8904 20.8786 32.0134 21.0031 32.1686 21.0684C32.3238 21.1337 32.4985 21.1345 32.6543 21.0705C32.8101 21.0066 32.9341 20.8832 32.9992 20.7274C33.0643 20.5717 33.0651 20.3964 33.0014 20.24L31.8572 17.4003C31.8258 17.3252 31.8096 17.2446 31.8093 17.1631C31.809 17.0817 31.8247 17.001 31.8556 16.9256C31.8864 16.8503 31.9317 16.7818 31.9889 16.724C32.0461 16.6662 32.1141 16.6203 32.189 16.5889" fill="#FFD100"/>
<path d="M30.4864 8.54671C31.0018 8.35372 31.5441 8.22548 32.0981 8.16556L31.144 6.33533L28.2969 7.38608L29.0571 9.29185C29.4967 8.98603 29.98 8.73537 30.494 8.54671" fill="#FFD100"/>
</g>
<defs>
<clipPath id="clip0">
<rect width="54.0621" height="54.0621" fill="white"/>
</clipPath>
</defs>
</svg>

<svg width="55" height="55" fill="none" xmlns="http://www.w3.org/2000/svg"><g clip-path="url(#clip0)" fill="#FFD100"><path d="M53.361 46.669l-.03-.025.034-.034-.756-.638-5.258-4.882s-.093.097-.24.24l-.14.148c-1.196 1.124-5.043 4.363-9.554 4.422h-.291c-2.374-.257-4.689-1.533-7.037-3.89-3.898-3.92-8.228-6.044-12.895-6.335h-.388a16.877 16.877 0 00-2.112-.055C7.67 35.907 2.445 40.617.676 42.433c-.372.35-.6.591-.646.642l.03.025-.06.008.756.638L6.01 48.63l.245-.241.14-.148c1.2-1.123 5.043-4.363 9.553-4.422h.292c2.373.258 4.688 1.533 7.036 3.89 3.899 3.92 8.228 6.044 12.895 6.335h.389c.701.065 1.407.083 2.111.055 7.024-.287 12.249-4.996 14.019-6.812.371-.35.6-.592.646-.642M35.395 5.886l.149-.067a.572.572 0 00.188-.13.607.607 0 00.17-.432.63.63 0 00-.357-.563.552.552 0 00-.442-.003l-.153.067c-.13.07-.23.19-.28.334a.642.642 0 00.01.445.59.59 0 00.293.32.552.552 0 00.422.026m3.411-4.679l.166-.052a.605.605 0 00.274-.333.637.637 0 00-.01-.439.602.602 0 00-.287-.32.564.564 0 00-.42-.035l-.15.064a.586.586 0 00-.32.33.637.637 0 00.125.669.578.578 0 00.413.179.559.559 0 00.224-.048m3.139.425l.19-.065a.777.777 0 00.26-.119.62.62 0 00.18-.194.5.5 0 00.014-.478.602.602 0 00-.169-.202.76.76 0 00-.253-.128.868.868 0 00-.58.032l-.186.066a.672.672 0 00-.391.318.494.494 0 00-.003.451.68.68 0 00.389.318.88.88 0 00.549.005M39.321 3.85a.6.6 0 00.12.197c.053.056.115.1.183.131a.525.525 0 00.43-.001l.145-.063a.559.559 0 00.183-.13.605.605 0 00.164-.425.636.636 0 00-.162-.426.552.552 0 00-.181-.13.522.522 0 00-.429 0l-.148.06a.589.589 0 00-.304.327.646.646 0 000 .46zm2.957 0a.586.586 0 00.303.326.529.529 0 00.43.003l.145-.066a.56.56 0 00.182-.13.639.639 0 00.003-.85.529.529 0 00-.61-.133l-.146.064a.585.585 0 00-.305.325.644.644 0 00-.002.46zm-5.067 2.104c.06.15.173.27.316.333a.562.562 0 00.448.003l.15-.064a.608.608 0 00.276-.334.644.644 0 00-.01-.442.605.605 0 00-.288-.32.562.562 0 00-.42-.037l-.151.064a.602.602 0 00-.318.331.644.644 0 00-.003.47m2.973.422a.622.622 0 00.168.198.814.814 0 00.252.133.958.958 0 00.593 0l.201-.064a.686.686 0 00.37-.334.494.494 0 00-.013-.443.707.707 0 00-.388-.321.974.974 0 00-.561-.031l-.201.068a.814.814 0 00-.252.132.624.624 0 00-.169.198.5.5 0 000 .468M37.115 3.77l.156-.068a.617.617 0 00.283-.338.637.637 0 00-.01-.445.615.615 0 00-.297-.324.59.59 0 00-.432-.036l-.164.069a.616.616 0 00-.292.339.636.636 0 00.01.452c.058.144.168.26.306.326a.59.59 0 00.44.025zm.054 8.087a4.97 4.97 0 00-2.695-2.285 4.923 4.923 0 00-3.52.094 4.976 4.976 0 00-2.572 2.427 5.035 5.035 0 00-.325 3.534l9.112-3.77zm1.716.813l-4.248 1.754.666 1.625c.183.452.18.958-.006 1.408-.187.45-.543.807-.991.993a1.696 1.696 0 01-.614.135l.48 1.18a1.85 1.85 0 01-.373 2.04 1.826 1.826 0 01-1.315.544 1.817 1.817 0 01-1.304-.57 1.84 1.84 0 01-.386-.617l-1.801-4.409-1.116.461 8.419 20.642a.25.25 0 00.324.138l10.535-4.352a.258.258 0 00.134-.326l-8.404-20.645z"/><path d="M32.181 16.589a.617.617 0 01.809.34.637.637 0 00.828.349.633.633 0 00.394-.587.64.64 0 00-.047-.244l-.69-1.664-3.487 1.438 1.839 4.501a.636.636 0 00.827.348.635.635 0 00.347-.83l-1.144-2.84a.62.62 0 01.332-.811m-1.703-8.042a6.633 6.633 0 011.612-.381l-.954-1.83-2.847 1.05.76 1.906c.44-.306.923-.557 1.437-.745"/></g><defs><clipPath id="clip0"><path fill="#fff" d="M0 0h54.062v54.062H0z"/></clipPath></defs></svg>
